X:200
U: ~ = !turn!
%%topmargin 3cm
T:The Stage Hornpipe
B:Traditional Irish Fiddle Tunes. Randy Miller and Jack Perron.
Z:Transcribed by Ralph Palmer
R:Hornpipe
L:1/8
M:C|
K:G
BGFG ((3EFG) DB, | G,B,DG cBAG | AGAB cBcB | ((3ABA) ((3GFE) ((3DED) ((3CB,A,) |
G,B,DG cBcd | edef ga ((3gfe) | d<bc<a B<gA<f | [1 ecAF G3 A:|] [2 ecAF G3 ||
|: ((3def) | ga ((3gfe) dgbd | ceac Bd g2 | dB G2 ((3gfg) ag | fgef defd |
ga ((3gfe) dgbd | ceac Bd g2 | | ((3gag) ((3fgf) egfg | [1 ecAF G3 :|] [2 ecAF G4 |]
